dist/img/icon-quote-start.svg

<svg width="15" height="16" viewBox="0 0 15 16" fill="none" xmlns="http://www.w3.org/2000/svg">
<path d="M0.871094 10.4375C0.871094 8.62109 1.23242 6.86328 1.95508 5.16406C2.67773 3.44531 3.68359 1.98047 4.97266 0.769531L7.08203 2.26367C6.14453 3.57227 5.46094 4.86133 5.03125 6.13086C4.60156 7.38086 4.38672 8.78711 4.38672 10.3496V15.4473H0.871094V10.4375ZM8.10742 10.4375C8.10742 8.62109 8.46875 6.86328 9.19141 5.16406C9.91406 3.44531 10.9199 1.98047 12.209 0.769531L14.3184 2.26367C13.3809 3.57227 12.6973 4.86133 12.2676 6.13086C11.8379 7.38086 11.623 8.78711 11.623 10.3496V15.4473H8.10742V10.4375Z" fill="#00787C"/>
</svg>

<svg width="15" height="16" viewBox="0 0 15 16" fill="none" xmlns="http://www.w3.org/2000/svg"><path d="M.871 10.438c0-1.817.361-3.575 1.084-5.274C2.678 3.445 3.684 1.98 4.973.77l2.109 1.494C6.145 3.572 5.461 4.86 5.032 6.13c-.43 1.25-.645 2.656-.645 4.219v5.097H.87v-5.01zm7.236 0c0-1.817.362-3.575 1.084-5.274C9.914 3.445 10.92 1.98 12.21.77l2.11 1.494c-.938 1.308-1.622 2.597-2.051 3.867-.43 1.25-.645 2.656-.645 4.219v5.097H8.107v-5.01z" fill="#00787C"/></svg>
